images/mIAU.svg

<svg height="250" viewBox="0 0 250 250" width="250" xmlns="http://www.w3.org/2000/svg" xmlns:xlink="http://www.w3.org/1999/xlink"><symbol id="a" overflow="visible"><path d="m4.78125 0v-49.140625h10.28125v49.140625zm0 0"/></symbol><symbol id="b" overflow="visible"><path d="m39.515625 0-4.359375-12.546875h-18.734375l-4.359375 12.546875h-10.28125l17.921875-49.140625h12.140625l17.859375 49.140625zm-13.75-41.5625-.203125.765625c-.230469.835937-.511719 1.789063-.84375 2.859375-.324219 1.0625-2.320312 6.945312-5.984375 17.640625h14.109375l-4.84375-14.125-1.5-4.734375zm0 0"/></symbol><symbol id="c" overflow="visible"><path d="m25.21875.703125c-6.773438 0-11.953125-1.648437-15.546875-4.953125-3.585937-3.300781-5.375-8.019531-5.375-14.15625v-30.734375h10.28125v29.921875c0 3.886719.921875 6.835938 2.765625 8.84375 1.851562 2.011719 4.570312 3.015625 8.15625 3.015625 3.664062 0 6.488281-1.050781 8.46875-3.15625 1.976562-2.101563 2.96875-5.117187 2.96875-9.046875v-29.578125h10.28125v30.203125c0 6.230469-1.929688 11.0625-5.78125 14.5-3.84375 3.429688-9.25 5.140625-16.21875 5.140625zm0 0"/></symbol><path d="m250 125c0 69.035156-55.964844 125-125 125s-125-55.964844-125-125 55.964844-125 125-125 125 55.964844 125 125zm0 0" fill="#fff" fill-rule="evenodd"/><g fill="#121a2f"><use x="65.644531" xlink:href="#a" y="151.787388"/><use x="81.722935" xlink:href="#b" y="151.787388"/><use x="133.515625" xlink:href="#c" y="151.787388"/></g></svg>

<svg xmlns="http://www.w3.org/2000/svg" xmlns:xlink="http://www.w3.org/1999/xlink" width="250px" height="250px" viewBox="0 0 250 250" version="1.1">
<defs>
<g>
<symbol overflow="visible" id="glyph0-0">
<path style="stroke:none;" d="M 7.15625 -49.140625 L 46.375 -49.140625 L 46.375 0 L 7.15625 0 Z M 9.796875 -46.484375 L 9.796875 -2.65625 L 43.734375 -2.65625 L 43.734375 -46.484375 Z M 9.796875 -46.484375 "/>
</symbol>
<symbol overflow="visible" id="glyph0-1">
<path style="stroke:none;" d="M 4.78125 0 L 4.78125 -49.140625 L 15.0625 -49.140625 L 15.0625 0 Z M 4.78125 0 "/>
</symbol>
<symbol overflow="visible" id="glyph0-2">
<path style="stroke:none;" d="M 39.515625 0 L 35.15625 -12.546875 L 16.421875 -12.546875 L 12.0625 0 L 1.78125 0 L 19.703125 -49.140625 L 31.84375 -49.140625 L 49.703125 0 Z M 25.765625 -41.5625 L 25.5625 -40.796875 C 25.332031 -39.960938 25.050781 -39.007812 24.71875 -37.9375 C 24.394531 -36.875 22.398438 -30.992188 18.734375 -20.296875 L 32.84375 -20.296875 L 28 -34.421875 L 26.5 -39.15625 Z M 25.765625 -41.5625 "/>
</symbol>
<symbol overflow="visible" id="glyph0-3">
<path style="stroke:none;" d="M 25.21875 0.703125 C 18.445312 0.703125 13.265625 -0.945312 9.671875 -4.25 C 6.085938 -7.550781 4.296875 -12.269531 4.296875 -18.40625 L 4.296875 -49.140625 L 14.578125 -49.140625 L 14.578125 -19.21875 C 14.578125 -15.332031 15.5 -12.382812 17.34375 -10.375 C 19.195312 -8.363281 21.914062 -7.359375 25.5 -7.359375 C 29.164062 -7.359375 31.988281 -8.410156 33.96875 -10.515625 C 35.945312 -12.617188 36.9375 -15.632812 36.9375 -19.5625 L 36.9375 -49.140625 L 47.21875 -49.140625 L 47.21875 -18.9375 C 47.21875 -12.707031 45.289062 -7.875 41.4375 -4.4375 C 37.59375 -1.007812 32.1875 0.703125 25.21875 0.703125 Z M 25.21875 0.703125 "/>
</symbol>
</g>
</defs>
<g id="surface1">
<path style=" stroke:none;fill-rule:evenodd;fill:rgb(100%,100%,100%);fill-opacity:1;" d="M 250 125 C 250 194.035156 194.035156 250 125 250 C 55.964844 250 0 194.035156 0 125 C 0 55.964844 55.964844 0 125 0 C 194.035156 0 250 55.964844 250 125 Z M 250 125 "/>
<g style="fill:rgb(7.058824%,10.196079%,18.431373%);fill-opacity:1;">
  <use xlink:href="#glyph0-1" x="65.644531" y="151.787388"/>
  <use xlink:href="#glyph0-2" x="81.722935" y="151.787388"/>
  <use xlink:href="#glyph0-3" x="133.515625" y="151.787388"/>
</g>
</g>
</svg>
